X:399
T:Lady Binning
R:Strathspey
B:The Athole Collection
M:C
L:1/8
K:A
(A/B/c B>A (ce c2|d>cB>A GA c<e c2|1 A/G/F/E/ F>G A2 A>B:|2
a/g/f/e/ f>g a2||
e/f/g|a>ef>e a>A d/c/B/A/|G>BE>B G>BE>g|a>ef>e a>A d/c/B/A/|
G/A/B E>G A2 A>g|a>ef>e a>Ac>A|GBE>B|A<cB<d c<ed<f|
a/g/f/e/ f>g a2 a z|]
